images/icon-love.svg

<svg width="58" height="58" viewBox="0 0 58 58" fill="none" xmlns="http://www.w3.org/2000/svg">
<g filter="url(#filter0_d_42_74)">
<rect x="4" width="50" height="50" rx="19" fill="#F03E3D"/>
<path d="M29 33.1429C29.1429 33.1429 29.2857 33.0893 29.3929 32.9821L34.9554 27.625C35.0357 27.5446 37 25.75 37 23.6071C37 20.9911 35.4018 19.4286 32.7321 19.4286C31.1696 19.4286 29.7054 20.6607 29 21.3571C28.2946 20.6607 26.8304 19.4286 25.2679 19.4286C22.5982 19.4286 21 20.9911 21 23.6071C21 25.75 22.9643 27.5446 23.0357 27.6071L28.6071 32.9821C28.7143 33.0893 28.8571 33.1429 29 33.1429Z" fill="white"/>
</g>
<defs>
<filter id="filter0_d_42_74" x="0" y="0" width="58" height="58" filterUnits="userSpaceOnUse" color-interpolation-filters="sRGB">
<feFlood flood-opacity="0" result="BackgroundImageFix"/>
<feColorMatrix in="SourceAlpha" type="matrix" values="0 0 0 0 0 0 0 0 0 0 0 0 0 0 0 0 0 0 127 0" result="hardAlpha"/>
<feOffset dy="4"/>
<feGaussianBlur stdDeviation="2"/>
<feColorMatrix type="matrix" values="0 0 0 0 0 0 0 0 0 0 0 0 0 0 0 0 0 0 0.25 0"/>
<feBlend mode="normal" in2="BackgroundImageFix" result="effect1_dropShadow_42_74"/>
<feBlend mode="normal" in="SourceGraphic" in2="effect1_dropShadow_42_74" result="shape"/>
</filter>
</defs>
</svg>

<svg width="58" height="58" fill="none" xmlns="http://www.w3.org/2000/svg"><g filter="url(#a)"><rect x="4" width="50" height="50" rx="19" fill="#F03E3D"/><path d="M29 33.143a.554.554 0 0 0 .393-.16l5.562-5.358c.08-.08 2.045-1.875 2.045-4.018 0-2.616-1.598-4.178-4.268-4.178-1.562 0-3.027 1.232-3.732 1.928-.705-.696-2.17-1.928-3.732-1.928-2.67 0-4.268 1.562-4.268 4.178 0 2.143 1.964 3.938 2.036 4l5.571 5.375c.107.107.25.16.393.16Z" fill="#fff"/></g><defs><filter id="a" x="0" y="0" width="58" height="58" filterUnits="userSpaceOnUse" color-interpolation-filters="sRGB"><feFlood flood-opacity="0" result="BackgroundImageFix"/><feColorMatrix in="SourceAlpha" values="0 0 0 0 0 0 0 0 0 0 0 0 0 0 0 0 0 0 127 0" result="hardAlpha"/><feOffset dy="4"/><feGaussianBlur stdDeviation="2"/><feColorMatrix values="0 0 0 0 0 0 0 0 0 0 0 0 0 0 0 0 0 0 0.25 0"/><feBlend in2="BackgroundImageFix" result="effect1_dropShadow_42_74"/><feBlend in="SourceGraphic" in2="effect1_dropShadow_42_74" result="shape"/></filter></defs></svg>
